X:1
T:Title
%%score { ( 1 3 ) | 2 }
L:1/8
M:6/8
K:G
V:1 treble nm="Grand Piano"
V:3 treble 
V:2 treble 
V:1
 z3 z2[Q:1/4=60] d | dcB BAG |[M:5/8] GFE D2 |[M:1/8] D |[M:3/4] [DE][CE] [CF][DG] [Cc][DB] | %5
 z G z2 z2 |] %6
V:2
 z3 z2 [GB] | [FA][EG][DG] [DF][CD][K:bass][B,D] |[M:5/8] [B,C][A,C][G,C] [F,C]2 |[M:1/8] [B,,G,] | %4
[M:3/4] [C,G,][C,G,] [A,,D,][B,,D,] [E,G,][D,G,] | [C,G,].[D,A,D] [D,CD] [G,B,D]3 |] %6
V:3
 x6 | x6 |[M:5/8] x5 |[M:1/8] x |[M:3/4] x6 | .[EA]>B, F G3 |] %6

